offer/images/tiny/action.svg

<svg height="45" viewBox="0 0 45 45" width="45" xmlns="http://www.w3.org/2000/svg"><g fill="none" fill-rule="evenodd"><g fill="#828282" fill-rule="nonzero"><path d="m40.5262281 8.42096491h-14.5010527c-.4843859 0-.8771929.3927193-.8771929.87719298 0 .48447369.392807.87719301.8771929.87719301h14.5010527c1.4510526 0 2.6315789 1.1805263 2.6315789 2.6315789v17.5436842c0 1.4510527-1.1805263 2.631579-2.6315789 2.631579h-3.0301755c-.4843859 0-.877193.3927193-.877193.877193 0 .4844736.3928071.8771929.877193.8771929h3.0301755c2.418421 0 4.3859649-1.9675438 4.3859649-4.3859649v-17.5436842c0-2.418421-1.9675439-4.38596489-4.3859649-4.38596489z"/><path d="m19.4445614 32.982193h-15.05842105c-1.45105263 0-2.63157895-1.1805263-2.63157895-2.631579v-17.5436842c0-1.4510526 1.18052632-2.6315789 2.63157895-2.6315789h14.62017545c.484386 0 .877193-.39271932.877193-.87719301 0-.48447368-.392807-.87719298-.877193-.87719298h-14.62017545c-2.41842105 0-4.38596491 1.96754389-4.38596491 4.38596489v17.5436842c0 2.4184211 1.96754386 4.3859649 4.38596491 4.3859649h15.05842105c.484386 0 .877193-.3927193.877193-.8771929 0-.4844737-.392807-.877193-.877193-.877193z"/><path d="m22.457193 0c-.484386 0-.877193.3927193-.877193.87719298v5.23842106c0 .48447368.3927193.87719298.877193.87719298.4843859 0 .877193-.3927193.877193-.87719298v-5.23842106c-.0000878-.48447368-.3928948-.87719298-.877193-.87719298z"/><path d="m29.817807 3.87c-.3426316-.34254386-.8978947-.34254386-1.240614 0l-2.1357895 2.13578947c-.3425439.34254386-.3425439.89798246 0 1.24061404.1714035.17131579.3957895.25692982.6203509.25692982s.4489474-.08561403.6202631-.25692982l2.1357895-2.13578947c.3425439-.34254386.3425439-.89798246 0-1.24061404z"/><path d="m18.4726316 6.00157895-2.1357895-2.13570176c-.3426316-.34254386-.8978947-.34254386-1.240614 0-.3425439.34254386-.3425439.89798246 0 1.24061404l2.1358772 2.13578947c.1713158.17131579.3957894.25692983.6202631.25692983s.4489474-.08561404.6202632-.25692983c.3425438-.34263158.3425438-.89807017 0-1.24070175z"/><path d="m36.7025439 39.4451754-3.8242983-3.8242105 1.5160526-1.5160526c.221579-.221579.3081579-.5445614.2270176-.8472807-.0811404-.3027193-.3175439-.5391228-.6202632-.6202632l-10.5174561-2.8181579c-.3028947-.0813158-.6257018.0054386-.8472807.2270176-.221579.2215789-.3081579.5445614-.2270176.8473684l2.8181579 10.5174561c.0811404.3027193.3175439.5391228.6202632.6202632.302807.0812281.6257018-.0054386.8472807-.2270176l.9731579-.9730701 3.8242105 3.8242105c.1713158.1712281.3957895.2569298.6202632.2569298s.4489473-.0857017.6202631-.2569298l3.9697369-3.9697368c.3424561-.3425439.3424561-.8978948-.0000877-1.2405264zm-4.5899123 3.349386-3.8242105-3.8242105c-.1713158-.1713158-.3957895-.2569298-.6202632-.2569298s-.4489474.0857017-.6202632.2569298l-.5190351.5190351-2.0316666-7.5823685 7.5822807 2.0317544-1.0619298 1.0620176c-.3425439.3425438-.3425439.8979824 0 1.2405263l3.8242105 3.8242105z"/><path d="m23.0491228 8.67798246c-.1631579-.1631579-.3894737-.25701755-.6210526-.25701755-.2307018 0-.4570176.09385965-.6201755.25701755-.1630701.16315789-.2570175.38947368-.2570175.62017543 0 .23070176.0938596.45701755.2570175.62017544.1639474.16315787.3894737.25701757.6201755.25701757.2315789 0 .4570175-.0938597.6210526-.25701757.1631579-.16315789.2561404-.38947368.2561404-.62017544 0-.23070175-.0929825-.45701754-.2561404-.62017543z"/></g><path d="m14.2678683 18.4782585c-.0340603.4708337-.2078654.8414844-.5214206 1.1119633s-.7267807.4057163-1.2396888.4057163c-.5609933 0-1.002268-.1888315-1.3238374-.5665002s-.4823517-.8960788-.4823517-1.555246v-.2674722c0-.420745.0741302-.7913957.2223927-1.1119633s.3601345-.5664994.6356223-.7378027c.2754877-.1713033.5955497-.2569537.9601953-.2569537.504894 0 .911608.1352374 1.2201543.4057163.3085464.270479.4868594.6501455.5349446 1.1390111h-.9015919c-.022039-.2825002-.1006771-.4873599-.2359166-.6145851-.1352394-.1272253-.3411008-.190837-.6175904-.190837-.3005321 0-.525427.1076891-.6746912.3230705-.1492643.2153813-.2258989.5494679-.229906 1.0022696v.3305837c0 .4728372.0716258.818444.2148794 1.0368306.1432537.2183867.3691503.3275784.6776966.3275784.2784931 0 .486358-.0636117.623601-.1908369.137243-.1272253.2158811-.3240709.2359166-.5905427zm3.0624071.5559816h-1.5807911l-.3005306.9015919h-.9586927l1.628876-4.3757259h.8354751l1.6378919 4.3757259h-.9586927zm-1.3373613-.7302894h1.0939315l-.549971-1.6378919zm3.9099034.9076025h1.9143801v.7242788h-2.8159719v-4.3757259h.9015918zm3.3328847 0h1.91438v.7242788h-2.8159719v-4.3757259h.9015919zm7.0774962-2.9211577h-1.3403666v3.6454365h-.9015919v-3.6454365h-1.3223347v-.7302894h3.5642932zm4.024105 1.5567487c0 .4307627-.0761336.8084257-.2284032 1.1330004-.1522697.3245747-.3701522.5750144-.6536541.7513266-.283502.1763122-.6085727.2644669-.9752219.2644669-.3626421 0-.6862102-.087153-.9707139-.2614616-.2845038-.1743086-.5048907-.4232457-.6611674-.7468186s-.2354157-.6957263-.2374192-1.1164713v-.216382c0-.4307627.0776363-.8099284.2329112-1.1375084.155275-.3275801.3746601-.5790215.6581621-.7543319s.6075709-.2629643.9722166-.2629643c.3646456 0 .6887146.0876539.9722165.2629643.283502.1753104.5028872.4267518.6581621.7543319.1552749.32758.2329112.7057439.2329112 1.1345031zm-.9136131-.1983502c0-.4588124-.0821442-.8074245-.2464351-1.0458466-.1642909-.2384222-.3987024-.3576315-.7032416-.3576315-.3025357 0-.5359455.1177067-.7002364.3531235-.1642909.2354169-.2474369.5805227-.2494404 1.035328v.2133768c0 .4467911.0821442.7933996.2464351 1.0398359.1642909.2464364.400706.3696527.7092523.3696527.3025357 0 .5349437-.1187084.697231-.3561288.1622874-.2374204.2444316-.583528.2464351-1.0383333zm-19.5348662 8.8444284h-1.6548907l-.314618.943854h-1.0036314l1.7052296-4.580838h.874638l1.7146681 4.580838h-1.0036314zm-1.4000501-.7645217h1.1452095l-.5757509-1.7146681zm6.6793401.1824784c-.0356569.492904-.2176092.880929-.5458622 1.1640866-.3282531.2831576-.7608485.4247343-1.2977993.4247343-.5872898 0-1.0492493-.197683-1.3858923-.5930549-.3366429-.395372-.5049618-.9380826-.5049618-1.6281482v-.28001c0-.4404674.077605-.8284924.2328173-1.1640866s.3770158-.593054.665417-.7723872c.2884013-.1793331.6234661-.2689983 1.0052045-.2689983.5285609 0 .9543397.1415766 1.2773491.4247343.3230094.2831576.5096809.680621.56002 1.1924022h-.9438539c-.0230721-.2957424-.1053964-.5102049-.2469752-.6433938-.1415788-.133189-.35709-.1997825-.64654-.1997825-.3146195 0-.5500563.112737-.7063174.3382144-.156261.2254773-.2364878.5752242-.2406827 1.049251v.3460798c0 .4950015.0749832.8568085.2249518 1.0854321.1499687.2286235.3864542.3429336.7094636.3429336.2915475 0 .5091561-.0665935.6528324-.1997824.1436762-.133189.2260005-.3392617.2469751-.6182244zm3.9767715-2.290419h-1.4031963v3.8163163h-.943854v-3.8163163h-1.3843192v-.7645217h3.7313695zm1.5416282 3.8163163h-.943854v-4.580838h.943854zm4.6374692-2.1865951c0 .4509547-.0797024.8463207-.2391096 1.1861099-.1594073.3397891-.3875031.6019681-.6842942.786545-.2967911.1845768-.6370995.2768638-1.0209354.2768638-.3796409 0-.7183763-.0912383-1.0162161-.2737177-.2978399-.1824793-.5285574-.4430853-.6921596-.7818257s-.2464508-.7283384-.2485482-1.1688058v-.226525c0-.4509547.0812755-.8478938.2438289-1.1908291.1625535-.3429354.3922223-.6061631.6890134-.7896912.2967912-.1835281.6360508-.2752907 1.0177893-.2752907.3817384 0 .7209981.0917626 1.0177892.2752907s.5264599.4467558.6890134.7896912c.1625534.3429353.2438289.7388257.2438289 1.1876829zm-.9564387-.2076479c0-.4803192-.0859947-.8452724-.2579867-1.0948706-.1719921-.2495982-.4173916-.3743954-.7362061-.3743954-.3167171 0-.5610679.1232241-.73306.3696761-.171992.246452-.2590355.6077348-.2611329 1.083859v.2233788c0 .4677344.0859947.8305902.2579867 1.0885783.1719921.257988.4194891.3869801.7424985.3869801.3167171 0 .5600192-.1242728.7299138-.3728223.1698945-.2485495.2558893-.6108809.2579867-1.0870052zm5.3673831 2.394243h-.943854l-1.8373691-3.0140404v3.0140404h-.943854v-4.580838h.943854l1.8405153 3.0203327v-3.0203327h.9407078z" fill="#a03ee5"/></g></svg>

<?xml version="1.0" encoding="UTF-8"?>
<svg width="45px" height="45px" viewBox="0 0 45 45" version="1.1" xmlns="http://www.w3.org/2000/svg" xmlns:xlink="http://www.w3.org/1999/xlink">
    <!-- Generator: Sketch 52.2 (67145) - http://www.bohemiancoding.com/sketch -->
    <title>buy</title>
    <desc>Created with Sketch.</desc>
    <g id="Page-1" stroke="none" stroke-width="1" fill="none" fill-rule="evenodd">
        <g id="home" transform="translate(-191.000000, -1753.000000)">
            <g id="buy" transform="translate(191.000000, 1753.000000)">
                <path d="M40.5262281,8.42096491 L26.0251754,8.42096491 C25.5407895,8.42096491 25.1479825,8.81368421 25.1479825,9.29815789 C25.1479825,9.78263158 25.5407895,10.1753509 26.0251754,10.1753509 L40.5262281,10.1753509 C41.9772807,10.1753509 43.157807,11.3558772 43.157807,12.8069298 L43.157807,30.350614 C43.157807,31.8016667 41.9772807,32.982193 40.5262281,32.982193 L37.4960526,32.982193 C37.0116667,32.982193 36.6188596,33.3749123 36.6188596,33.859386 C36.6188596,34.3438596 37.0116667,34.7365789 37.4960526,34.7365789 L40.5262281,34.7365789 C42.9446491,34.7365789 44.912193,32.7690351 44.912193,30.350614 L44.912193,12.8069298 C44.912193,10.3885088 42.9446491,8.42096491 40.5262281,8.42096491 Z" id="Shape" fill="#828282" fill-rule="nonzero"></path>
                <path d="M19.4445614,32.982193 L4.38614035,32.982193 C2.93508772,32.982193 1.7545614,31.8016667 1.7545614,30.350614 L1.7545614,12.8069298 C1.7545614,11.3558772 2.93508772,10.1753509 4.38614035,10.1753509 L19.0063158,10.1753509 C19.4907018,10.1753509 19.8835088,9.78263158 19.8835088,9.29815789 C19.8835088,8.81368421 19.4907018,8.42096491 19.0063158,8.42096491 L4.38614035,8.42096491 C1.9677193,8.42096491 0.000175438596,10.3885088 0.000175438596,12.8069298 L0.000175438596,30.350614 C0.000175438596,32.7690351 1.9677193,34.7365789 4.38614035,34.7365789 L19.4445614,34.7365789 C19.9289474,34.7365789 20.3217544,34.3438596 20.3217544,33.859386 C20.3217544,33.3749123 19.9289474,32.982193 19.4445614,32.982193 Z" id="Shape" fill="#828282" fill-rule="nonzero"></path>
                <path d="M22.457193,0 C21.972807,0 21.58,0.392719298 21.58,0.877192982 L21.58,6.11561404 C21.58,6.60008772 21.9727193,6.99280702 22.457193,6.99280702 C22.9415789,6.99280702 23.334386,6.60008772 23.334386,6.11561404 L23.334386,0.877192982 C23.3342982,0.392719298 22.9414912,0 22.457193,0 Z" id="Shape" fill="#828282" fill-rule="nonzero"></path>
                <path d="M29.817807,3.87 C29.4751754,3.52745614 28.9199123,3.52745614 28.577193,3.87 L26.4414035,6.00578947 C26.0988596,6.34833333 26.0988596,6.90377193 26.4414035,7.24640351 C26.612807,7.4177193 26.837193,7.50333333 27.0617544,7.50333333 C27.2863158,7.50333333 27.5107018,7.4177193 27.6820175,7.24640351 L29.817807,5.11061404 C30.1603509,4.76807018 30.1603509,4.21263158 29.817807,3.87 Z" id="Shape" fill="#828282" fill-rule="nonzero"></path>
                <path d="M18.4726316,6.00157895 L16.3368421,3.86587719 C15.9942105,3.52333333 15.4389474,3.52333333 15.0962281,3.86587719 C14.7536842,4.20842105 14.7536842,4.76385965 15.0962281,5.10649123 L17.2321053,7.2422807 C17.4034211,7.41359649 17.6278947,7.49921053 17.8523684,7.49921053 C18.0768421,7.49921053 18.3013158,7.41359649 18.4726316,7.2422807 C18.8151754,6.89964912 18.8151754,6.34421053 18.4726316,6.00157895 Z" id="Shape" fill="#828282" fill-rule="nonzero"></path>
                <path d="M36.7025439,39.4451754 L32.8782456,35.6209649 L34.3942982,34.1049123 C34.6158772,33.8833333 34.7024561,33.5603509 34.6213158,33.2576316 C34.5401754,32.9549123 34.3037719,32.7185088 34.0010526,32.6373684 L23.4835965,29.8192105 C23.1807018,29.7378947 22.8578947,29.8246491 22.6363158,30.0462281 C22.4147368,30.267807 22.3281579,30.5907895 22.4092982,30.8935965 L25.2274561,41.4110526 C25.3085965,41.7137719 25.545,41.9501754 25.8477193,42.0313158 C26.1505263,42.1125439 26.4734211,42.0258772 26.695,41.8042982 L27.6681579,40.8312281 L31.4923684,44.6554386 C31.6636842,44.8266667 31.8881579,44.9123684 32.1126316,44.9123684 C32.3371053,44.9123684 32.5615789,44.8266667 32.7328947,44.6554386 L36.7026316,40.6857018 C37.0450877,40.3431579 37.0450877,39.787807 36.7025439,39.4451754 Z M32.1126316,42.7945614 L28.2884211,38.9703509 C28.1171053,38.7990351 27.8926316,38.7134211 27.6681579,38.7134211 C27.4436842,38.7134211 27.2192105,38.7991228 27.0478947,38.9703509 L26.5288596,39.489386 L24.497193,31.9070175 L32.0794737,33.9387719 L31.0175439,35.0007895 C30.675,35.3433333 30.675,35.8987719 31.0175439,36.2413158 L34.8417544,40.0655263 L32.1126316,42.7945614 Z" id="Shape" fill="#828282" fill-rule="nonzero"></path>
                <path d="M23.0491228,8.67798246 C22.8859649,8.51482456 22.6596491,8.42096491 22.4280702,8.42096491 C22.1973684,8.42096491 21.9710526,8.51482456 21.8078947,8.67798246 C21.6448246,8.84114035 21.5508772,9.06745614 21.5508772,9.29815789 C21.5508772,9.52885965 21.6447368,9.75517544 21.8078947,9.91833333 C21.9718421,10.0814912 22.1973684,10.1753509 22.4280702,10.1753509 C22.6596491,10.1753509 22.8850877,10.0814912 23.0491228,9.91833333 C23.2122807,9.75517544 23.3052632,9.52885965 23.3052632,9.29815789 C23.3052632,9.06745614 23.2122807,8.84114035 23.0491228,8.67798246 Z" id="Shape" fill="#828282" fill-rule="nonzero"></path>
                <path d="M14.2678683,18.4782585 C14.233808,18.9490922 14.0600029,19.3197429 13.7464477,19.5902218 C13.4328925,19.8607007 13.019667,19.9959381 12.5067589,19.9959381 C11.9457656,19.9959381 11.5044909,19.8071066 11.1829215,19.4294379 C10.8613521,19.0517692 10.7005698,18.5333591 10.7005698,17.8741919 L10.7005698,17.6067197 C10.7005698,17.1859747 10.7747,16.815324 10.9229625,16.4947564 C11.071225,16.1741888 11.283097,15.928257 11.5585848,15.7569537 C11.8340725,15.5856504 12.1541345,15.5 12.5187801,15.5 C13.0236741,15.5 13.4303881,15.6352374 13.7389344,15.9057163 C14.0474808,16.1761953 14.2257938,16.5558618 14.273879,17.0447274 L13.3722871,17.0447274 C13.3502481,16.7622272 13.27161,16.5573675 13.1363705,16.4301423 C13.0011311,16.302917 12.7952697,16.2393053 12.5187801,16.2393053 C12.218248,16.2393053 11.9933531,16.3469944 11.8440889,16.5623758 C11.6948246,16.7777571 11.61819,17.1118437 11.6141829,17.5646454 L11.6141829,17.8952291 C11.6141829,18.3680663 11.6858087,18.7136731 11.8290623,18.9320597 C11.972316,19.1504464 12.1982126,19.2596381 12.5067589,19.2596381 C12.785252,19.2596381 12.9931169,19.1960264 13.1303599,19.0688012 C13.2676029,18.9415759 13.346241,18.7447303 13.3662765,18.4782585 L14.2678683,18.4782585 Z M17.3302754,19.0342401 L15.7494843,19.0342401 L15.4489537,19.935832 L14.490261,19.935832 L16.119137,15.5601061 L16.9546121,15.5601061 L18.592504,19.935832 L17.6338113,19.935832 L17.3302754,19.0342401 Z M15.9929141,18.3039507 L17.0868456,18.3039507 L16.5368746,16.6660588 L15.9929141,18.3039507 Z M19.9028175,19.2115532 L21.8171976,19.2115532 L21.8171976,19.935832 L19.0012257,19.935832 L19.0012257,15.5601061 L19.9028175,15.5601061 L19.9028175,19.2115532 Z M23.2357022,19.2115532 L25.1500822,19.2115532 L25.1500822,19.935832 L22.3341103,19.935832 L22.3341103,15.5601061 L23.2357022,15.5601061 L23.2357022,19.2115532 Z M30.3131984,16.2903955 L28.9728318,16.2903955 L28.9728318,19.935832 L28.0712399,19.935832 L28.0712399,16.2903955 L26.7489052,16.2903955 L26.7489052,15.5601061 L30.3131984,15.5601061 L30.3131984,16.2903955 Z M34.3373034,17.8471442 C34.3373034,18.2779069 34.2611698,18.6555699 34.1089002,18.9801446 C33.9566305,19.3047193 33.738748,19.555159 33.4552461,19.7314712 C33.1717441,19.9077834 32.8466734,19.9959381 32.4800242,19.9959381 C32.1173821,19.9959381 31.793814,19.9087851 31.5093103,19.7344765 C31.2248065,19.5601679 31.0044196,19.3112308 30.8481429,18.9876579 C30.6918662,18.664085 30.6127272,18.2919316 30.6107237,17.8711866 L30.6107237,17.6548046 C30.6107237,17.2240419 30.68836,16.8448762 30.8436349,16.5172962 C30.9989099,16.1897161 31.218295,15.9382747 31.501797,15.7629643 C31.785299,15.5876539 32.1093679,15.5 32.4740136,15.5 C32.8386592,15.5 33.1627282,15.5876539 33.4462301,15.7629643 C33.7297321,15.9382747 33.9491173,16.1897161 34.1043922,16.5172962 C34.2596671,16.8448762 34.3373034,17.2230401 34.3373034,17.6517993 L34.3373034,17.8471442 Z M33.4236903,17.648794 C33.4236903,17.1899816 33.3415461,16.8413695 33.1772552,16.6029474 C33.0129643,16.3645252 32.7785528,16.2453159 32.4740136,16.2453159 C32.1714779,16.2453159 31.9380681,16.3630226 31.7737772,16.5984394 C31.6094863,16.8338563 31.5263403,17.1789621 31.5243368,17.6337674 L31.5243368,17.8471442 C31.5243368,18.2939353 31.606481,18.6405438 31.7707719,18.8869801 C31.9350628,19.1334165 32.1714779,19.2566328 32.4800242,19.2566328 C32.7825599,19.2566328 33.0149679,19.1379244 33.1772552,18.900504 C33.3395426,18.6630836 33.4216868,18.316976 33.4236903,17.8621707 L33.4236903,17.648794 Z M13.8888241,26.4932224 L12.2339334,26.4932224 L11.9193154,27.4370764 L10.915684,27.4370764 L12.6209136,22.8562384 L13.4955516,22.8562384 L15.2102197,27.4370764 L14.2065883,27.4370764 L13.8888241,26.4932224 Z M12.488774,25.7287007 L13.6339835,25.7287007 L13.0582326,24.0140326 L12.488774,25.7287007 Z M19.1681141,25.9111791 C19.1324572,26.4040831 18.9505049,26.7921081 18.6222519,27.0752657 C18.2939988,27.3584233 17.8614034,27.5 17.3244526,27.5 C16.7371628,27.5 16.2752033,27.302317 15.9385603,26.9069451 C15.6019174,26.5115731 15.4335985,25.9688625 15.4335985,25.2787969 L15.4335985,24.9987869 C15.4335985,24.5583195 15.5112035,24.1702945 15.6664158,23.8347003 C15.8216281,23.4991061 16.0434316,23.2416463 16.3318328,23.0623131 C16.6202341,22.88298 16.9552989,22.7933148 17.3370373,22.7933148 C17.8655982,22.7933148 18.291377,22.9348914 18.6143864,23.2180491 C18.9373958,23.5012067 19.1240673,23.8986701 19.1744064,24.4104513 L18.2305525,24.4104513 C18.2074804,24.1147089 18.1251561,23.9002464 17.9835773,23.7670575 C17.8419985,23.6338685 17.6264873,23.567275 17.3370373,23.567275 C17.0224178,23.567275 16.786981,23.680012 16.6307199,23.9054894 C16.4744589,24.1309667 16.3942321,24.4807136 16.3900372,24.9547404 L16.3900372,25.3008202 C16.3900372,25.7958217 16.4650204,26.1576287 16.614989,26.3862523 C16.7649577,26.6148758 17.0014432,26.7291859 17.3244526,26.7291859 C17.6160001,26.7291859 17.8336087,26.6625924 17.977285,26.5294035 C18.1209612,26.3962145 18.2032855,26.1901418 18.2242601,25.9111791 L19.1681141,25.9111791 Z M23.1448856,23.6207601 L21.7416893,23.6207601 L21.7416893,27.4370764 L20.7978353,27.4370764 L20.7978353,23.6207601 L19.4135161,23.6207601 L19.4135161,22.8562384 L23.1448856,22.8562384 L23.1448856,23.6207601 Z M24.6865138,27.4370764 L23.7426598,27.4370764 L23.7426598,22.8562384 L24.6865138,22.8562384 L24.6865138,27.4370764 Z M29.323983,25.2504813 C29.323983,25.701436 29.2442806,26.096802 29.0848734,26.4365912 C28.9254661,26.7763803 28.6973703,27.0385593 28.4005792,27.2231362 C28.1037881,27.407713 27.7634797,27.5 27.3796438,27.5 C27.0000029,27.5 26.6612675,27.4087617 26.3634277,27.2262823 C26.0655878,27.043803 25.8348703,26.783197 25.6712681,26.4444566 C25.5076659,26.1057162 25.4248173,25.7161182 25.4227199,25.2756508 L25.4227199,25.0491258 C25.4227199,24.5981711 25.5039954,24.201232 25.6665488,23.8582967 C25.8291023,23.5153613 26.0587711,23.2521336 26.3555622,23.0686055 C26.6523534,22.8850774 26.991613,22.7933148 27.3733515,22.7933148 C27.7550899,22.7933148 28.0943496,22.8850774 28.3911407,23.0686055 C28.6879318,23.2521336 28.9176006,23.5153613 29.0801541,23.8582967 C29.2427075,24.201232 29.323983,24.5971224 29.323983,25.0459796 L29.323983,25.2504813 Z M28.3675443,25.0428334 C28.3675443,24.5625142 28.2815496,24.197561 28.1095576,23.9479628 C27.9375655,23.6983646 27.692166,23.5735674 27.3733515,23.5735674 C27.0566344,23.5735674 26.8122836,23.6967915 26.6402915,23.9432435 C26.4682995,24.1896955 26.381256,24.5509783 26.3791586,25.0271025 L26.3791586,25.2504813 C26.3791586,25.7182157 26.4651533,26.0810715 26.6371453,26.3390596 C26.8091374,26.5970476 27.0566344,26.7260397 27.3796438,26.7260397 C27.6963609,26.7260397 27.939663,26.6017669 28.1095576,26.3532174 C28.2794521,26.1046679 28.3654469,25.7423365 28.3675443,25.2662122 L28.3675443,25.0428334 Z M33.7349274,27.4370764 L32.7910734,27.4370764 L30.9537043,24.423036 L30.9537043,27.4370764 L30.0098503,27.4370764 L30.0098503,22.8562384 L30.9537043,22.8562384 L32.7942196,25.8765711 L32.7942196,22.8562384 L33.7349274,22.8562384 L33.7349274,27.4370764 Z" id="CALL-TO-ACTION" fill="#A03EE5"></path>
            </g>
        </g>
    </g>
</svg>
